icon_installer/data/icons/scalable/actions/show-snapshots-symbolic.svg

<?xml version="1.0" encoding="UTF-8"?>
<svg height="16px" viewBox="0 0 16 16" width="16px" xmlns="http://www.w3.org/2000/svg">
    <g fill="#222222">
        <path d="m 3.472656 1 c -1.371094 0 -2.472656 1.101562 -2.472656 2.472656 v 3.054688 c 0 1.371094 1.101562 2.472656 2.472656 2.472656 h 4.054688 c 1.371094 0 2.472656 -1.101562 2.472656 -2.472656 v -3.054688 c 0 -1.371094 -1.101562 -2.472656 -2.472656 -2.472656 z m 0.125 2 h 3.804688 c 0.332031 0 0.597656 0.265625 0.597656 0.597656 v 2.804688 c 0 0.332031 -0.265625 0.597656 -0.597656 0.597656 h -3.804688 c -0.332031 0 -0.597656 -0.265625 -0.597656 -0.597656 v -2.804688 c 0 -0.332031 0.265625 -0.597656 0.597656 -0.597656 z m 0 0"/>
        <path d="m 3.398438 9 l -1.398438 2.019531 h 7 l -1.398438 -2.019531 z m 0 0"/>
        <path d="m 11.015625 5 v 1.527344 c 0 0.160156 -0.011719 0.320312 -0.03125 0.472656 h 1.40625 c 0.332031 0 0.597656 0.265625 0.597656 0.597656 v 2.804688 c 0 0.332031 -0.265625 0.597656 -0.597656 0.597656 h -2.285156 c 0.011719 0.617188 -0.484375 1.039062 -1.105469 1.039062 h -2.414062 c 0.453124 0.53125 1.121093 0.960938 1.875 0.960938 h -0.074219 l -1.398438 2.019531 h 7 l -1.402343 -2.019531 h -0.070313 c 1.371094 0 2.472656 -1.101562 2.472656 -2.472656 v -3.054688 c 0 -1.371094 -1.101562 -2.472656 -2.472656 -2.472656 z m 0 0" fill-opacity="0.34902"/>
    </g>
</svg>

<svg xmlns="http://www.w3.org/2000/svg" width="16" height="16"><g fill="#222"><path d="M3.473 1A2.466 2.466 0 0 0 1 3.473v3.054A2.466 2.466 0 0 0 3.473 9h4.054A2.466 2.466 0 0 0 10 6.527V3.473A2.466 2.466 0 0 0 7.527 1zm.125 2h3.804c.332 0 .598.266.598.598v2.804A.595.595 0 0 1 7.402 7H3.598A.595.595 0 0 1 3 6.402V3.598C3 3.266 3.266 3 3.598 3zm0 0"/><path d="M3.398 9 2 11.02h7L7.602 9zm0 0"/><path fill-opacity=".349" d="M11.016 5v1.527c0 .16-.012.32-.032.473h1.407c.332 0 .597.266.597.598v2.804a.595.595 0 0 1-.597.598h-2.286c.012.617-.484 1.04-1.105 1.04H6.586c.453.53 1.121.96 1.875.96h-.074l-1.399 2.02h7L12.586 13h-.07a2.466 2.466 0 0 0 2.472-2.473V7.473A2.466 2.466 0 0 0 12.516 5zm0 0"/></g></svg>
